packages/sights/assets/overlays/IVcF1dOP.svg

<svg width="500" height="375" viewBox="0 0 500 375" fill="none" xmlns="http://www.w3.org/2000/svg">
<path d="M7.67969 90.1145C7.67969 90.1145 25.4097 87.5245 31.5297 86.9045L123.4 28.5145L136.7 22.5145C136.7 22.5145 222 4.16442 337.56 13.7945C337.56 13.7945 427.76 23.1245 438.15 29.8545L441.51 34.4345C441.51 34.4345 443.35 44.2245 443.04 45.1345C442.73 46.0445 472.39 79.6845 472.39 79.6845C472.39 79.6845 492.94 92.2645 492.94 93.1745C492.94 94.0845 494.63 97.8745 494.63 97.8745L491.42 119.654L492.109 137.764L484.94 173.124L477.6 185.814L470.859 192.654" stroke="white" stroke-miterlimit="10"/>
<path d="M471.09 193.154C477.09 173.774 475.82 157.474 466.63 152.154C453.54 144.594 429.22 162.214 412.31 191.504C406.386 201.562 401.959 212.43 399.17 223.764L387.09 235.454L75.7 353.454C75.7 353.454 66.99 303.454 6 291.544" stroke="white" stroke-miterlimit="10"/>
<path d="M123.4 28.5146C123.4 28.5146 176.75 33.5146 182.86 37.8347C182.86 37.8347 55.6794 128.034 42.2294 146.684L13.7894 152.794H6.93945" stroke="white" stroke-miterlimit="10"/>
<path d="M31.53 86.9043C31.53 86.9043 7.94 103.874 6 106.654" stroke="white" stroke-miterlimit="10"/>
<path d="M49.0703 311.064C49.0703 311.064 55.6803 321.064 55.6803 327.824L57.3603 364.404" stroke="white" stroke-miterlimit="10"/>
<path d="M456.849 219.436C467.447 199.37 468.096 178.908 458.3 173.734C448.503 168.56 431.97 180.633 421.372 200.7C410.774 220.767 410.125 241.228 419.921 246.402C429.718 251.576 446.251 239.503 456.849 219.436Z" stroke="white" stroke-miterlimit="10"/>
<path d="M443.01 156.574L461.08 161.354L465.51 165.024C465.51 165.024 479.42 188.874 458.94 222.194C458.94 222.194 447.32 246.344 421.33 255.524H412.16L385.87 239.924L384.32 236.504" stroke="white" stroke-miterlimit="10"/>
<path d="M485.74 88.0645L480.65 95.4644V101.864L488.44 117.944L491.42 119.664" stroke="white" stroke-miterlimit="10"/>
<path d="M6 277.994C6 277.994 53 278.714 78 321.554C78 321.554 390.76 215.554 397.64 206.044C397.64 206.044 412.77 152.184 460.16 141.784C460.16 141.784 491.35 137.944 480.65 180.524" stroke="white" stroke-miterlimit="10"/>
<path d="M175.369 145.455C175.369 145.455 160.299 144.535 110.859 147.135C107.959 147.295 69.8588 152.795 69.8588 152.795C69.2388 153.105 66.7988 164.265 66.7988 164.265C81.3825 160.04 96.4194 157.575 111.589 156.925C137.589 159.925 169.679 156.925 169.679 156.925L173.959 151.415C175.329 148.055 175.329 132.925 175.329 132.925C172.279 128.925 152.859 114.925 147.509 112.435C142.159 109.945 136.049 111.525 136.049 111.525L104.939 129.255V133.255L113.809 147.015" stroke="white" stroke-miterlimit="10"/>
<path d="M69.9395 152.794C69.9395 152.794 172.47 49.6545 216.04 38.1445C216.04 38.1445 279.78 18.4245 396.26 28.5145C396.26 28.5145 432.26 75.5145 435.02 85.6145L175.17 141.654" stroke="white" stroke-miterlimit="10"/>
<path d="M309.239 26.0244L310.619 31.8444L312.769 111.994L314.939 120.384L317.389 144.994L307.909 243.294V261.024L304.449 266.764" stroke="white" stroke-miterlimit="10"/>
<path d="M277.94 161.654C278.28 161.604 278.85 163.834 284.24 164.064L299.72 160.734V158.654L296.94 155.774C296.94 155.774 308.29 154.054 308.29 154.624C308.482 155.516 308.82 156.371 309.29 157.154C309.405 158.565 309.405 159.983 309.29 161.394C309.29 161.394 295.53 171.944 269.97 172.284L267.94 170.454C267.94 170.454 264.53 163.574 277.94 161.654Z" stroke="white" stroke-miterlimit="10"/>
<path d="M436.621 120.004C436.481 120.164 439.721 122.924 439.721 122.924V124.194L431.181 125.854C430.891 125.904 428.481 126.134 425.101 123.554C423.815 123.654 422.566 124.029 421.437 124.653C420.309 125.278 419.328 126.137 418.561 127.174V131.064L419.711 131.874C419.711 131.874 437.831 131.184 442.531 127.284L445.111 124.284V121.934C445.111 121.934 443.791 119.124 443.271 119.304C442.751 119.484 439.201 117.084 436.621 120.004Z" stroke="white" stroke-miterlimit="10"/>
<path d="M396.26 28.5146C396.26 28.5146 428.37 34.2446 435.02 40.2046L443.02 45.2046" stroke="white" stroke-miterlimit="10"/>
</svg>

<svg width="500" height="375" fill="none" xmlns="http://www.w3.org/2000/svg"><path d="M7.68 90.115s17.73-2.59 23.85-3.21l91.87-58.39 13.3-6s85.3-18.35 200.86-8.72c0 0 90.2 9.33 100.59 16.06l3.36 4.58s1.84 9.79 1.53 10.7c-.31.91 29.35 34.55 29.35 34.55s20.55 12.58 20.55 13.49c0 .91 1.69 4.7 1.69 4.7l-3.21 21.779.689 18.11-7.169 35.36-7.34 12.69-6.741 6.84" stroke="#fff" stroke-miterlimit="10"/><path d="M471.09 193.154c6-19.38 4.73-35.68-4.46-41-13.09-7.56-37.41 10.06-54.32 39.35a120.129 120.129 0 0 0-13.14 32.26l-12.08 11.69-311.39 118s-8.71-50-69.7-61.91M123.4 28.515s53.35 5 59.46 9.32c0 0-127.18 90.199-140.63 108.849l-28.44 6.11H6.94M31.53 86.904S7.94 103.874 6 106.654" stroke="#fff" stroke-miterlimit="10"/><path d="M49.07 311.064s6.61 10 6.61 16.76l1.68 36.58M456.849 219.436c10.598-20.066 11.247-40.528 1.451-45.702-9.797-5.174-26.33 6.899-36.928 26.966-10.598 20.067-11.247 40.528-1.451 45.702 9.797 5.174 26.33-6.899 36.928-26.966Z" stroke="#fff" stroke-miterlimit="10"/><path d="m443.01 156.574 18.07 4.78 4.43 3.67s13.91 23.85-6.57 57.17c0 0-11.62 24.15-37.61 33.33h-9.17l-26.29-15.6-1.55-3.42M485.74 88.064l-5.09 7.4v6.4l7.79 16.08 2.98 1.72" stroke="#fff" stroke-miterlimit="10"/><path d="M6 277.994s47 .72 72 43.56c0 0 312.76-106 319.64-115.51 0 0 15.13-53.86 62.52-64.26 0 0 31.19-3.84 20.49 38.74M175.369 145.455s-15.07-.92-64.51 1.68c-2.9.16-41 5.66-41 5.66-.62.31-3.06 11.47-3.06 11.47a190.229 190.229 0 0 1 44.79-7.34c26 3 58.09 0 58.09 0l4.28-5.51c1.37-3.36 1.37-18.49 1.37-18.49-3.05-4-22.47-18-27.82-20.49-5.35-2.49-11.46-.91-11.46-.91l-31.11 17.73v4l8.87 13.76" stroke="#fff" stroke-miterlimit="10"/><path d="M69.94 152.794s102.53-103.14 146.1-114.65c0 0 63.74-19.72 180.22-9.63 0 0 36 47 38.76 57.1l-259.85 56.04" stroke="#fff" stroke-miterlimit="10"/><path d="m309.239 26.024 1.38 5.82 2.15 80.15 2.17 8.39 2.45 24.61-9.48 98.3v17.73l-3.46 5.74" stroke="#fff" stroke-miterlimit="10"/><path d="M277.94 161.654c.34-.05.91 2.18 6.3 2.41l15.48-3.33v-2.08l-2.78-2.88s11.35-1.72 11.35-1.15c.192.892.53 1.747 1 2.53a26.098 26.098 0 0 1 0 4.24s-13.76 10.55-39.32 10.89l-2.03-1.83s-3.41-6.88 10-8.8ZM436.621 120.004c-.14.16 3.1 2.92 3.1 2.92v1.27l-8.54 1.66c-.29.05-2.7.28-6.08-2.3a9.003 9.003 0 0 0-6.54 3.62v3.89l1.15.81s18.12-.69 22.82-4.59l2.58-3v-2.35s-1.32-2.81-1.84-2.63c-.52.18-4.07-2.22-6.65.7ZM396.26 28.515s32.11 5.73 38.76 11.69l8 5" stroke="#fff" stroke-miterlimit="10"/></svg>
